src/assets/icons/close.svg

<svg width="97" height="99" viewBox="0 0 97 99" fill="none" xmlns="http://www.w3.org/2000/svg">
<path d="M76.5593 13.8768L45.2477 5.48684C33.0047 2.20635 22.4674 8.59535 19.0417 21.38L11.1347 50.8895C7.71873 63.6381 13.6508 74.4362 25.8937 77.7167L57.2054 86.1066C69.4483 89.3871 79.9486 82.992 83.3645 70.2434L91.2716 40.734C94.6972 27.9493 88.8023 17.1573 76.5593 13.8768Z" fill="#F43F5E" fill-opacity="0.8"/>
<g filter="url(#filter0_f_10_830)">
<path d="M67.17 25.6971L47.4551 20.4145C39.7465 18.349 33.1119 22.3717 30.955 30.4214L25.9764 49.0015C23.8256 57.0285 27.5607 63.8273 35.2692 65.8928L54.9841 71.1754C62.6927 73.2409 69.304 69.2143 71.4548 61.1874L76.4333 42.6072C78.5902 34.5576 74.8786 27.7626 67.17 25.6971Z" fill="#E31352" fill-opacity="0.5"/>
</g>
<foreignObject x="-24" y="-1.94727" width="124.778" height="124.778"><div xmlns="http://www.w3.org/1999/xhtml" style="backdrop-filter:blur(12px);clip-path:url(#bgblur_0_10_830_clip_path);height:100%;width:100%"></div></foreignObject><g data-figma-bg-blur-radius="24">
<mask id="path-3-outside-1_10_830" maskUnits="userSpaceOnUse" x="0" y="22.0527" width="77" height="77" fill="black">
<rect fill="white" y="22.0527" width="77" height="77"/>
<path d="M54.6157 23.0527H22.1995C9.52467 23.0527 1 31.9513 1 45.187V75.7374C1 88.9357 9.52467 97.8306 22.1995 97.8306H54.6157C67.2906 97.8306 75.7778 88.9357 75.7778 75.7374V45.187C75.7778 31.9513 67.2906 23.0527 54.6157 23.0527Z"/>
</mask>
<path d="M54.6157 23.0527H22.1995C9.52467 23.0527 1 31.9513 1 45.187V75.7374C1 88.9357 9.52467 97.8306 22.1995 97.8306H54.6157C67.2906 97.8306 75.7778 88.9357 75.7778 75.7374V45.187C75.7778 31.9513 67.2906 23.0527 54.6157 23.0527Z" fill="#F43F5E" fill-opacity="0.4"/>
<path d="M54.6157 22.0527C54.0634 22.0527 53.6157 22.5004 53.6157 23.0527C53.6157 23.605 54.0634 24.0527 54.6157 24.0527V22.0527ZM54.6157 22.0527H22.1995V24.0527H54.6157V22.0527ZM22.1995 22.0527C15.6193 22.0527 10.0484 24.3681 6.12452 28.4648C2.20423 32.5576 0 38.3524 0 45.187H2C2 38.7859 4.05811 33.5135 7.56886 29.8482C11.076 26.1866 16.1049 24.0527 22.1995 24.0527V22.0527ZM0 45.187V75.7374H2V45.187H0ZM0 75.7374C0 82.5541 2.20469 88.3386 6.12502 92.4256C10.0488 96.5162 15.6195 98.8306 22.1995 98.8306V96.8306C16.1047 96.8306 11.0756 94.6975 7.56836 91.0411C4.05765 87.3811 2 82.1191 2 75.7374H0ZM22.1995 98.8306H54.6157V96.8306H22.1995V98.8306ZM54.6157 98.8306C61.1959 98.8306 66.7577 96.5161 70.6724 92.4247C74.5833 88.3372 76.7778 82.5529 76.7778 75.7374H74.7778C74.7778 82.1203 72.7288 87.3825 69.2273 91.042C65.7296 94.6976 60.7103 96.8306 54.6157 96.8306V98.8306ZM76.7778 75.7374V45.187H74.7778V75.7374H76.7778ZM76.7778 45.187C76.7778 38.3536 74.5837 32.559 70.6729 28.4657C66.7582 24.3683 61.1961 22.0527 54.6157 22.0527V24.0527C60.7102 24.0527 65.7292 26.1865 69.2268 29.8473C72.7283 33.5122 74.7778 38.7847 74.7778 45.187H76.7778Z" fill="url(#paint0_linear_10_830)" mask="url(#path-3-outside-1_10_830)"/>
</g>
<foreignObject x="11.1426" y="33.1618" width="54.4521" height="54.4738"><div xmlns="http://www.w3.org/1999/xhtml" style="backdrop-filter:blur(7.5px);clip-path:url(#bgblur_1_10_830_clip_path);height:100%;width:100%"></div></foreignObject><g filter="url(#filter2_d_10_830)" data-figma-bg-blur-radius="15">
<path d="M49.6415 67.0647C50.9127 68.3359 50.9127 70.3923 49.6415 71.6598C49.0059 72.2954 48.1833 72.6356 47.3234 72.6356C46.5008 72.6356 45.6783 72.3365 45.0427 71.6598L38.3874 65.0457L31.7322 71.6598C31.0966 72.2954 30.2741 72.6356 29.4141 72.6356C28.5916 72.6356 27.7316 72.2954 27.096 71.6598C25.8248 70.3923 25.8248 68.3359 27.096 67.0273L33.7512 60.4094L27.096 53.7505C25.8248 52.483 25.8248 50.3892 27.096 49.118C28.3672 47.843 30.4236 47.843 31.7322 49.118L38.3874 55.7695L45.0053 49.118C46.3139 47.843 48.3703 47.843 49.6415 49.118C50.9127 50.3892 50.9127 52.483 49.6415 53.7505L42.9863 60.4094L49.6415 67.0647Z" fill="url(#paint1_linear_10_830)"/>
<path d="M45.1465 49.2584C46.3402 48.0977 48.1884 48.0658 49.3857 49.151L49.5 49.2594C50.6559 50.4153 50.6916 52.2971 49.6084 53.4948L49.5 53.609L42.8447 60.2682L42.7031 60.4098L42.8447 60.5504L49.5 67.2057C50.6561 68.3618 50.692 70.2095 49.6084 71.4049L49.5 71.5182C48.9011 72.1172 48.129 72.4352 47.3232 72.4352C46.5987 72.4352 45.8785 72.1894 45.3018 71.6374L45.1885 71.5231L45.1836 71.5182L38.5283 64.904L38.3877 64.7633L38.2461 64.904L31.5908 71.5182C30.9919 72.1172 30.2198 72.4352 29.4141 72.4352C28.6445 72.4352 27.8354 72.1163 27.2373 71.5182L27.1289 71.4049C26.0471 70.2112 26.0791 68.3625 27.2363 67.1686L27.2373 67.1696L33.8926 60.5514L34.0342 60.4098L33.8926 60.2682L27.2373 53.609L27.1289 53.4948C26.0458 52.2971 26.0815 50.4153 27.2373 49.2594C28.3921 48.1013 30.241 48.0618 31.4756 49.152L31.5928 49.2614L38.2461 55.9108L38.3877 56.0524L38.5293 55.9108L45.1465 49.2584Z" stroke="url(#paint2_linear_10_830)" stroke-width="0.4"/>
</g>
<defs>
<filter id="filter0_f_10_830" x="8.375" y="2.87839" width="85.665" height="85.8329" filterUnits="userSpaceOnUse" color-interpolation-filters="sRGB">
<feFlood flood-opacity="0" result="BackgroundImageFix"/>
<feBlend mode="normal" in="SourceGraphic" in2="BackgroundImageFix" result="shape"/>
<feGaussianBlur stdDeviation="8.5" result="effect1_foregroundBlur_10_830"/>
</filter>
<clipPath id="bgblur_0_10_830_clip_path" transform="translate(24 1.94727)"><path d="M54.6157 23.0527H22.1995C9.52467 23.0527 1 31.9513 1 45.187V75.7374C1 88.9357 9.52467 97.8306 22.1995 97.8306H54.6157C67.2906 97.8306 75.7778 88.9357 75.7778 75.7374V45.187C75.7778 31.9513 67.2906 23.0527 54.6157 23.0527Z"/>
</clipPath><filter id="filter2_d_10_830" x="11.1426" y="33.1618" width="54.4521" height="54.4738" filterUnits="userSpaceOnUse" color-interpolation-filters="sRGB">
<feFlood flood-opacity="0" result="BackgroundImageFix"/>
<feColorMatrix in="SourceAlpha" type="matrix" values="0 0 0 0 0 0 0 0 0 0 0 0 0 0 0 0 0 0 127 0" result="hardAlpha"/>
<feOffset dx="5" dy="5"/>
<feGaussianBlur stdDeviation="5"/>
<feColorMatrix type="matrix" values="0 0 0 0 1 0 0 0 0 0.321569 0 0 0 0 0.54902 0 0 0 0.5 0"/>
<feBlend mode="normal" in2="BackgroundImageFix" result="effect1_dropShadow_10_830"/>
<feBlend mode="normal" in="SourceGraphic" in2="effect1_dropShadow_10_830" result="shape"/>
</filter>
<clipPath id="bgblur_1_10_830_clip_path" transform="translate(-11.1426 -33.1618)"><path d="M49.6415 67.0647C50.9127 68.3359 50.9127 70.3923 49.6415 71.6598C49.0059 72.2954 48.1833 72.6356 47.3234 72.6356C46.5008 72.6356 45.6783 72.3365 45.0427 71.6598L38.3874 65.0457L31.7322 71.6598C31.0966 72.2954 30.2741 72.6356 29.4141 72.6356C28.5916 72.6356 27.7316 72.2954 27.096 71.6598C25.8248 70.3923 25.8248 68.3359 27.096 67.0273L33.7512 60.4094L27.096 53.7505C25.8248 52.483 25.8248 50.3892 27.096 49.118C28.3672 47.843 30.4236 47.843 31.7322 49.118L38.3874 55.7695L45.0053 49.118C46.3139 47.843 48.3703 47.843 49.6415 49.118C50.9127 50.3892 50.9127 52.483 49.6415 53.7505L42.9863 60.4094L49.6415 67.0647Z"/>
</clipPath><linearGradient id="paint0_linear_10_830" x1="12.9034" y1="31.7644" x2="70.6312" y2="93.929" gradientUnits="userSpaceOnUse">
<stop stop-color="white" stop-opacity="0.25"/>
<stop offset="1" stop-color="white" stop-opacity="0"/>
</linearGradient>
<linearGradient id="paint1_linear_10_830" x1="48.8613" y1="52.5813" x2="21.6236" y2="53.4685" gradientUnits="userSpaceOnUse">
<stop stop-color="white"/>
<stop offset="1" stop-color="white" stop-opacity="0.2"/>
</linearGradient>
<linearGradient id="paint2_linear_10_830" x1="30.035" y1="51.013" x2="45.6496" y2="70.3351" gradientUnits="userSpaceOnUse">
<stop stop-color="white" stop-opacity="0.25"/>
<stop offset="1" stop-color="white" stop-opacity="0"/>
</linearGradient>
</defs>
</svg>

<svg xmlns="http://www.w3.org/2000/svg" width="97" height="99" fill="none" viewBox="0 0 97 99"><path fill="#f43f5e" fill-opacity=".8" d="m76.56 13.877-31.312-8.39c-12.243-3.28-22.78 3.108-26.206 15.893l-7.907 29.51C7.719 63.637 13.65 74.435 25.894 77.717l31.311 8.39c12.243 3.28 22.744-3.115 26.16-15.864l7.907-29.509c3.425-12.785-2.47-23.577-14.713-26.857"/><g filter="url(#a)"><path fill="#e31352" fill-opacity=".5" d="m67.17 25.697-19.715-5.282c-7.709-2.066-14.343 1.957-16.5 10.006l-4.979 18.58c-2.15 8.028 1.585 14.826 9.293 16.892l19.715 5.282c7.709 2.066 14.32-1.96 16.47-9.988l4.98-18.58c2.156-8.05-1.555-14.844-9.264-16.91"/></g><foreignObject width="124.778" height="124.778" x="-24" y="-1.947"><div xmlns="http://www.w3.org/1999/xhtml" clip-path="url(#b)" style="backdrop-filter:blur(12px);height:100%;width:100%"/></foreignObject><mask id="e" width="77" height="77" x="0" y="22.053" fill="#000" maskUnits="userSpaceOnUse"><path fill="#fff" d="M0 22.053h77v77H0z"/><use href="#c"/></mask><path fill="#f43f5e" fill-opacity=".4" d="M54.616 23.053H22.2C9.525 23.053 1 31.95 1 45.187v30.55c0 13.199 8.525 22.094 21.2 22.094h32.416c12.675 0 21.162-8.895 21.162-22.094v-30.55c0-13.236-8.487-22.134-21.162-22.134"/><path fill="url(#d)" d="M54.616 22.053a1 1 0 1 0 0 2zm0 0H22.2v2h32.416zm-32.416 0c-6.58 0-12.152 2.315-16.075 6.412C2.205 32.558 0 38.352 0 45.187h2c0-6.401 2.058-11.673 5.569-15.339 3.507-3.661 8.536-5.795 14.63-5.795zM0 45.187v30.55h2v-30.55zm0 30.55c0 6.817 2.205 12.602 6.125 16.689 3.924 4.09 9.494 6.405 16.075 6.405v-2c-6.095 0-11.124-2.133-14.632-5.79C4.058 87.381 2 82.12 2 75.737zm22.2 23.094h32.416v-2H22.2zm32.416 0c6.58 0 12.142-2.315 16.056-6.406 3.911-4.088 6.106-9.872 6.106-16.688h-2c0 6.383-2.05 11.645-5.55 15.305-3.498 3.656-8.518 5.789-14.612 5.789zm22.162-23.094v-30.55h-2v30.55zm0-30.55c0-6.833-2.194-12.628-6.105-16.721-3.915-4.098-9.477-6.413-16.057-6.413v2c6.094 0 11.113 2.133 14.61 5.794 3.502 3.665 5.552 8.938 5.552 15.34z" mask="url(#e)"/><foreignObject width="54.452" height="54.474" x="11.143" y="33.162"><div xmlns="http://www.w3.org/1999/xhtml" clip-path="url(#f)" style="backdrop-filter:blur(7.5px);height:100%;width:100%"/></foreignObject><g filter="url(#g)"><path fill="url(#h)" d="M49.642 67.065a3.245 3.245 0 0 1 0 4.595 3.26 3.26 0 0 1-2.319.976c-.822 0-1.645-.3-2.28-.976l-6.656-6.614-6.655 6.614a3.26 3.26 0 0 1-2.318.976c-.822 0-1.682-.34-2.318-.976-1.271-1.268-1.271-3.324 0-4.633l6.655-6.618-6.655-6.658c-1.271-1.268-1.271-3.362 0-4.633 1.271-1.275 3.328-1.275 4.636 0l6.655 6.651 6.618-6.651c1.309-1.275 3.365-1.275 4.636 0 1.272 1.271 1.272 3.365 0 4.633l-6.655 6.658z"/><path stroke="url(#i)" stroke-width=".4" d="M45.147 49.258c1.193-1.16 3.041-1.192 4.239-.107l.114.108a3.09 3.09 0 0 1 .108 4.236l-.108.114-6.655 6.66-.142.14.142.141 6.655 6.656a3.046 3.046 0 0 1 .108 4.199l-.108.113a3.06 3.06 0 0 1-2.177.917 2.88 2.88 0 0 1-2.021-.798l-.114-.114-.004-.005-6.656-6.614-.14-.14-.142.14-6.655 6.614a3.06 3.06 0 0 1-2.177.917c-.77 0-1.579-.319-2.177-.917l-.108-.113c-1.082-1.194-1.05-3.043.107-4.236h.001l6.656-6.618.141-.141-.141-.142-6.656-6.659-.108-.114a3.09 3.09 0 0 1 .108-4.236c1.155-1.158 3.004-1.197 4.239-.107l.117.11 6.653 6.649.142.141.141-.141z"/></g><defs><linearGradient id="d" x1="12.903" x2="70.631" y1="31.764" y2="93.929" gradientUnits="userSpaceOnUse"><stop stop-color="#fff" stop-opacity=".25"/><stop offset="1" stop-color="#fff" stop-opacity="0"/></linearGradient><linearGradient id="h" x1="48.861" x2="21.624" y1="52.581" y2="53.468" gradientUnits="userSpaceOnUse"><stop stop-color="#fff"/><stop offset="1" stop-color="#fff" stop-opacity=".2"/></linearGradient><linearGradient id="i" x1="30.035" x2="45.65" y1="51.013" y2="70.335" gradientUnits="userSpaceOnUse"><stop stop-color="#fff" stop-opacity=".25"/><stop offset="1" stop-color="#fff" stop-opacity="0"/></linearGradient><clipPath id="b" transform="translate(24 1.947)"><use href="#c"/></clipPath><clipPath id="f" transform="translate(-11.143 -33.162)"><path d="M49.642 67.065a3.245 3.245 0 0 1 0 4.595 3.26 3.26 0 0 1-2.319.976c-.822 0-1.645-.3-2.28-.976l-6.656-6.614-6.655 6.614a3.26 3.26 0 0 1-2.318.976c-.822 0-1.682-.34-2.318-.976-1.271-1.268-1.271-3.324 0-4.633l6.655-6.618-6.655-6.658c-1.271-1.268-1.271-3.362 0-4.633 1.271-1.275 3.328-1.275 4.636 0l6.655 6.651 6.618-6.651c1.309-1.275 3.365-1.275 4.636 0 1.272 1.271 1.272 3.365 0 4.633l-6.655 6.658z"/></clipPath><filter id="a" width="85.665" height="85.833" x="8.375" y="2.878" color-interpolation-filters="sRGB" filterUnits="userSpaceOnUse"><feFlood flood-opacity="0" result="BackgroundImageFix"/><feBlend in="SourceGraphic" in2="BackgroundImageFix" result="shape"/><feGaussianBlur result="effect1_foregroundBlur_10_830" stdDeviation="8.5"/></filter><filter id="g" width="54.452" height="54.474" x="11.143" y="33.162" color-interpolation-filters="sRGB" filterUnits="userSpaceOnUse"><feFlood flood-opacity="0" result="BackgroundImageFix"/><feColorMatrix in="SourceAlpha" result="hardAlpha" values="0 0 0 0 0 0 0 0 0 0 0 0 0 0 0 0 0 0 127 0"/><feOffset dx="5" dy="5"/><feGaussianBlur stdDeviation="5"/><feColorMatrix values="0 0 0 0 1 0 0 0 0 0.321569 0 0 0 0 0.54902 0 0 0 0.5 0"/><feBlend in2="BackgroundImageFix" result="effect1_dropShadow_10_830"/><feBlend in="SourceGraphic" in2="effect1_dropShadow_10_830" result="shape"/></filter><path id="c" d="M54.616 23.053H22.2C9.525 23.053 1 31.95 1 45.187v30.55c0 13.199 8.525 22.094 21.2 22.094h32.416c12.675 0 21.162-8.895 21.162-22.094v-30.55c0-13.236-8.487-22.134-21.162-22.134"/></defs></svg>
